X:1
T: Whiskey Before Breakfast
I:
M: C|
R: reel
K: D
%%textfont       Times-Roman 9.0
%
%%textfont       Times-Roman 7.0
"D"A,B,DE D2FG| AFBF A2EF| "G"G2BG "D"F2AF|1 "A7"EDEF EDB,A, :|2 "A"EDEF "D"D4 |]
|:"D"F2d2 d2Bc| dcdA BAFA| "Em"e4 e2ef| gfed "A7"cABc |
"D"d2fd "A"c2ec| "G"BABd "D"BAFD| "G"G2BG "D"F2AF| "A7"EDEF "D"D2 z2 :|
%
%
